X:1
T:Quatre branles
T:Quatre branles
T:Tielman Susato
C:Tielman Susato
%%score 1 2 3 4
L:1/8
Q:1/4=600
M:4/2
K:C
V:1 treble 
V:2 treble 
V:3 treble 
V:4 treble 
V:1
 E4 E2 D2 C2 B,2 C2 D2 | E2 F2 G2 F2 E4 D4 | E4 E2 D2 C2 B,2 C2 D2 | E2 F2 G4 D8 :: %4
 E2 F2 G2 A2 G2 F2 E2 D2 | E4 C4 C4 F4 | F4 E4 D8 :: E2 F2 G4 E2 F2 G4 | E2 F2 G4 F4 E4 | %9
 A4 A2 G2 F4 E4 | A4 A2 G2 F4 E4 | E2 F2 G2 E2 F2 E2 D2 C2 | B,2 A,2 C2 B,2 C4 G2 F2 | %13
 E4 D2 C2 D4 G2 F2 | E4 D4 C4 G2 F2 | E4 D2 C2 D4 G2 F2 | E4 D4 C8 :| %17
V:2
 C4 C2 A,2 A,6 A,2 | C4 C4 C4 B,4 | C4 C2 A,2 A,6 A,2 | C4 B,4 B,8 :: C4 C2 A,2 C6 F,2 | %5
 G,4 A,4 A,4 C4 | C4 C4 B,8 :: C4 B,4 C4 B,4 | C4 B,2 C2 D2 B,2 C4 | A,4 F,4 C4 C4 | %10
 A,4 F,4 C4 C4 | C4 C4 C4 A,4 | G,4 G,4 G,4 C4 | C4 G,2 A,2 B,4 B,4 | C4 B,4 C4 C4 | %15
 C4 G,2 A,2 B,4 B,4 | G,2 C4 B,2 C8 :| %17
V:3
 G,4 G,2 F,2 E,2 D,2 E,2 F,2 | G,4 G,4 G,4 G,4 | G,4 G,2 F,2 E,2 D,2 E,2 F,2 | G,4 G,4 G,8 :: %4
 G,4 G,2 F,2 G,2 A,2 G,2 F,2 | E,4 E,4 E,4 A,4 | A,4 G,4 G,8 :: G,4 G,2 G,2 A,4 G,4 | %8
 A,4 G,4 A,2 F,2 G,4 | C4 C2 B,2 A,4 G,4 | C4 C2 B,2 A,4 G,4 | G,4 G,2 G,2 A,2 G,2 F,2 E,2 | %12
 D,2 C,2 D,4 E,4 C,2 D,2 | E,2 F,2 G,4 G,4 D,4 | E,2 F,2 G,4 E,4 C,2 D,2 | E,2 F,2 G,4 G,4 D,4 | %16
 E,2 F,2 G,4 E,8 :| %17
V:4
 C,4 C,2 D,2 A,,6 F,,2 | C,4 C,4 C,4 G,,4 | C,4 C,2 D,2 A,,6 F,,2 | C,4 G,,4 G,,8 :: %4
 C,4 C,2 F,,2 C,6 D,2 | C,4 A,,4 A,,4 F,,4 | F,,4 C,4 G,,8 :: C,2 D,2 E,4 A,,4 E,4 | %8
 A,,4 E,4 D,4 C,4 | F,,4 F,,2 G,,2 A,,2 B,,2 C,4 | F,,4 F,,2 G,,2 A,,2 B,,2 C,4 | %11
 C,4 C,4 F,,4 F,4 | G,,4 G,,4 C,4 E,2 D,2 | C,4 B,,2 A,,2 G,,4 G,,4 | C,4 G,,4 C,4 E,2 D,2 | %15
 C,4 B,,2 A,,2 G,,4 G,,4 | C,4 G,,4 C,8 :| %17

